X: 33924
T: Red Tom Of The Hills
R: reel
M: 4/4
K: Gdorian
D~G3 DEFD|GABc defa|gfdc B/c/d BG|A/B/c AF DEFD|
G2 dG cGAF|GABc defa|gfdc ~B3d|1 cAFA G3 F:|2 cAFA G2 Bd||
g2 =bg dgbg|g/g/g =bg dGBd|f2 af cfaf|f/f/f af dcBc|
d~g3 =b~g3|dG=Bd gdBd|f2 a^f ~g3a|1 fdcA G2 Bd:|2 fdcA G3 F||

